public/assets/landing_page_images/features/Holiday Management.svg

<?xml version="1.0" encoding="UTF-8" standalone="no"?>
<!-- Created with Inkscape (http://www.inkscape.org/) -->

<svg
   width="72"
   height="72"
   viewBox="0 0 72 72"
   version="1.1"
   id="svg1"
   xmlns="http://www.w3.org/2000/svg"
   xmlns:svg="http://www.w3.org/2000/svg">
  <defs
     id="defs1" />
  <g
     id="layer1">
    <path
       style="fill:#860626;fill-opacity:1;fill-rule:evenodd;stroke:none"
       d="m 61.576046,71.989431 c -1.965715,0 -3.780222,-1.24688 -4.460661,-3.06052 l -3.175386,-8.23695 -0.151209,-0.15114 H 31.031857 l -0.189011,0.15114 -3.137584,8.23695 c -0.718242,1.81364 -2.494946,3.06052 -4.460661,3.06052 -0.604836,0 -1.171869,-0.11335 -1.7011,-0.34006 -1.209671,-0.45341 -2.116924,-1.32244 -2.646155,-2.49375 -0.529231,-1.13353 -0.567033,-2.45597 -0.113407,-3.62728 l 1.814507,-4.79859 -0.151209,-0.26449 c -1.852309,-0.22671 -3.515606,-1.05796 -4.838684,-2.38041 L 0.147448,42.668908 2.491185,40.288505 c 1.436484,-1.435799 3.364397,-2.229266 5.367914,-2.229266 2.04132,0 3.969233,0.793467 5.405717,2.229266 l 9.261542,9.257126 0.113407,0.0378 h 5.103299 l 0.189011,-0.22671 -5.519123,-19.761123 -0.264616,-0.151136 -3.326595,0.90682 -2.721759,-3.627281 -0.378022,0.113352 -0.529231,4.496318 -9.412752,2.53154 -4.989892,-6.6878 -0.0378,-0.188921 C -0.759806,21.471984 -0.003761,15.691005 2.869207,10.741277 5.704373,5.79155 10.354045,2.239837 15.873169,0.766254 17.725477,0.27506 19.615588,0.01057 21.467896,0.01057 c 9.677367,0 18.182866,6.536663 20.715614,15.869356 l 0.0756,0.264489 -0.982857,8.199167 -9.412752,2.53154 -2.721759,-3.627282 -0.378022,0.113353 -0.529231,4.496317 -3.326595,0.869036 -0.113407,0.26449 5.708135,20.479025 0.189011,0.15114 h 34.400015 c 3.818023,0 6.917805,3.0983 6.917805,6.87672 v 4.0429 h -7.598245 l -0.189011,0.30228 1.776704,4.68524 c 0.453626,1.20909 0.415824,2.49375 -0.07561,3.66506 -0.529231,1.13353 -1.474286,2.04035 -2.683957,2.49376 -0.529231,0.18892 -1.096264,0.30227 -1.701099,0.30227 z m -4.95209,-11.18412 2.759561,7.25457 c 0.34022,0.86903 1.209671,1.47358 2.192529,1.47358 0.264615,0 0.567033,-0.0378 0.831649,-0.15114 0.567033,-0.18892 1.020659,-0.64233 1.285275,-1.20909 0.264615,-0.56676 0.264615,-1.2091 0.0378,-1.77586 l -2.154726,-5.70541 -0.189011,-0.15114 h -4.574068 z m -33.379355,-0.11335 -2.192529,5.70541 c -0.226813,0.56676 -0.189011,1.2091 0.0756,1.77586 0.226813,0.56676 0.718242,1.02017 1.285275,1.20909 0.264615,0.11335 0.529231,0.15114 0.831649,0.15114 0.945055,0 1.814506,-0.56676 2.154726,-1.47358 l 2.797364,-7.25457 -0.189011,-0.26449 H 23.433612 Z M 7.896901,40.51521 c -2.23033,0 -3.515605,1.322446 -4.007034,1.851425 -0.0756,0.07557 -0.113407,0.113352 -0.151209,0.151137 v 0.302273 l 13.608797,13.564516 c 1.096264,1.13353 2.570551,1.73808 4.158244,1.73808 h 47.857603 l 0.226813,-0.18892 v -1.4358 c 0,-2.45597 -2.003517,-4.45854 -4.460661,-4.45854 H 21.581303 L 11.525914,42.026577 C 10.580859,41.044189 9.257781,40.51521 7.896901,40.51521 Z m -3.629012,-13.186678 -0.113407,0.302273 2.532749,3.362792 0.226813,0.07557 5.934948,-1.624719 0.151208,-0.151137 0.491429,-4.15626 -0.226813,-0.226705 -8.959125,2.418188 z m 13.041764,-3.513929 -0.113407,0.302274 2.532749,3.362791 0.189011,0.07557 5.97275,-1.586936 0.151208,-0.188921 0.491429,-4.156259 -0.264615,-0.226705 z M 11.79053,5.07365 C 4.910527,9.116558 1.281514,17.126803 2.793603,24.985913 l 0.226813,0.151136 9.56396,-2.569324 0.151209,-0.264489 C 12.13075,19.847264 10.316243,11.270256 12.092947,5.300355 Z m 18.523085,15.227024 -0.113407,0.302274 2.532748,3.362792 0.226814,0.07557 5.934947,-1.586935 0.151209,-0.188921 0.491429,-4.15626 -0.226813,-0.226705 z M 17.08284,3.033305 c -0.189011,0 -0.378023,0.03778 -0.567034,0.07557 -2.646155,0.717899 -3.855825,8.50144 -1.436484,18.552032 l 0.264616,0.151137 11.60528,-3.136087 0.151208,-0.226705 C 25.474931,13.083896 20.900863,3.033305 17.08284,3.033305 Z M 21.467896,2.8066 c 4.536266,4.231828 7.258026,12.544347 7.976268,15.000319 l 0.264615,0.151136 9.56396,-2.569324 0.151209,-0.264489 C 36.739991,7.567406 29.595373,2.504326 21.581303,2.428758 Z"
       id="path1-1" />
    <path
       style="fill:#860626;fill-opacity:1;fill-rule:evenodd;stroke:none"
       d="m 59.42132,19.469423 c -3.780222,0 -6.880003,-3.098303 -6.880003,-6.876721 0,-3.816202 3.099781,-6.914505 6.880003,-6.914505 3.818023,0 6.917805,3.098303 6.917805,6.914505 0,3.778418 -3.099782,6.876721 -6.917805,6.876721 z m 0,-11.373038 c -2.457144,0 -4.460662,2.002561 -4.460662,4.458533 0,2.455971 2.003518,4.458533 4.460662,4.458533 2.457144,0 4.460661,-2.002562 4.460661,-4.458533 0,-2.455972 -2.003517,-4.458533 -4.460661,-4.458533 z"
       id="path2-2" />
    <path
       style="fill:#860626;fill-opacity:1;fill-rule:evenodd;stroke:none"
       d="m 60.668793,0.01057 h -2.457144 v 2.418188 h 2.457144 z"
       id="path3-5" />
    <path
       style="fill:#860626;fill-opacity:1;fill-rule:evenodd;stroke:none"
       d="m 67.473191,2.844384 -1.738902,1.700288 1.738902,1.738072 1.7011,-1.738072 z"
       id="path4-0" />
    <path
       style="fill:#860626;fill-opacity:1;fill-rule:evenodd;stroke:none"
       d="m 72.009457,11.345824 h -2.419342 v 2.455972 h 2.419342 z"
       id="path5-9" />
    <path
       style="fill:#860626;fill-opacity:1;fill-rule:evenodd;stroke:none"
       d="m 67.473191,18.864876 -1.738902,1.700288 1.738902,1.738072 1.7011,-1.738072 z"
       id="path6-4" />
    <path
       style="fill:#860626;fill-opacity:1;fill-rule:evenodd;stroke:none"
       d="m 60.668793,22.681078 h -2.457144 v 2.455971 h 2.457144 z"
       id="path7-7" />
    <path
       style="fill:#860626;fill-opacity:1;fill-rule:evenodd;stroke:none"
       d="m 51.40725,18.864876 -1.738902,1.700288 1.738902,1.738072 1.7011,-1.738072 z"
       id="path8-8" />
    <path
       style="fill:#860626;fill-opacity:1;fill-rule:evenodd;stroke:none"
       d="m 49.290326,11.345824 h -2.419342 v 2.455972 h 2.419342 z"
       id="path9-3" />
    <path
       style="fill:#860626;fill-opacity:1;fill-rule:evenodd;stroke:none"
       d="M 51.40725,2.844384 49.706151,4.544672 51.40725,6.282744 53.146152,4.544672 Z"
       id="path10-5" />
  </g>
</svg>

<svg width="72" height="72" viewBox="0 0 72 72" fill="none" xmlns="http://www.w3.org/2000/svg">
<path d="M61.5486 71.9892C59.5829 71.9892 57.8027 70.7569 57.0929 68.9247L53.9476 60.6799L53.762 60.5491H31.0136L30.8279 60.6799L27.6827 68.9247C26.9838 70.7569 25.1927 71.9892 23.2269 71.9892C22.6481 71.9892 22.0802 71.8802 21.5342 71.673C20.3438 71.2149 19.4046 70.3316 18.8804 69.1756C18.3562 68.0195 18.3234 66.7218 18.7712 65.533L20.595 60.7454L20.4312 60.4727C18.5965 60.2437 16.9255 59.4258 15.6041 58.1062L0.129081 42.6636L2.49893 40.297C3.9405 38.8575 5.84075 38.0723 7.87205 38.0723C9.90335 38.0723 11.8145 38.8575 13.2452 40.297L22.5062 49.5451L22.6481 49.5997H27.7373L27.9339 49.3488L22.4079 29.5985L22.1567 29.4567L18.8149 30.351L16.0955 26.7302L15.7352 26.8284L15.2 31.3325L5.79706 33.8626L0.784338 27.1883L0.751576 26.992C-0.744597 21.4627 0.00894471 15.6936 2.87024 10.7424C5.72061 5.79113 10.3511 2.23585 15.8771 0.752662C17.7118 0.261902 19.6012 0.0110683 21.4796 0.0110683C31.1337 0.0110683 39.6412 6.53273 42.1639 15.8572L42.2403 16.1189L41.2575 24.331L31.8545 26.8611L29.1352 23.2404L28.7748 23.3385L28.2397 27.8426L24.9197 28.7369L24.7777 28.9877L30.5003 49.4797L30.6969 49.6324H65.098C68.8985 49.6324 71.9891 52.7187 71.9891 56.5139V60.56H64.3881L64.2024 60.8326L66.0044 65.5439C66.4522 66.7327 66.4194 68.0304 65.8952 69.1865C65.371 70.3425 64.4318 71.2367 63.2414 71.6839C62.6953 71.8911 62.1275 72.0002 61.5377 72.0002L61.5486 71.9892ZM56.6124 60.8217L59.3754 68.0523C59.7139 68.9465 60.5876 69.5572 61.5486 69.5572C61.8326 69.5572 62.1165 69.5027 62.3786 69.4046C62.9574 69.1865 63.427 68.7502 63.6782 68.1831C63.9294 67.616 63.9513 66.9835 63.7328 66.4055L61.5486 60.6799L61.363 60.5491H56.8089L56.6233 60.8217H56.6124ZM23.2379 60.6799L21.0537 66.4055C20.8352 66.9835 20.8462 67.616 21.1083 68.1831C21.3595 68.7502 21.8291 69.1865 22.4079 69.4046C22.67 69.5027 22.9539 69.5572 23.2379 69.5572C24.1989 69.5572 25.0726 68.9574 25.4111 68.0632L28.1741 60.8217L27.9885 60.5491H23.4344L23.2488 60.6799H23.2379ZM7.88297 40.5152C5.65509 40.5152 4.38826 41.8457 3.90774 42.3473C3.83129 42.4237 3.77668 42.4891 3.74392 42.5109L3.72208 42.8163L17.3296 56.4049C18.4435 57.5173 19.9179 58.128 21.4905 58.128H69.3571L69.5646 57.9208V56.503C69.5646 54.0492 67.5661 52.0535 65.1089 52.0535H21.5779L11.5415 42.0311C10.5695 41.0604 9.26994 40.5152 7.88297 40.5152ZM4.27905 27.3082L4.16984 27.6245L6.69258 30.9835L6.91101 31.0598L12.8629 29.4567L13.0158 29.2822L13.5073 25.1162L13.2561 24.8981L4.28997 27.3082H4.27905ZM17.2968 23.8075L17.1876 24.1238L19.7104 27.4827L19.9288 27.5591L25.8807 25.9559L26.0336 25.7814L26.5251 21.6154L26.2739 21.3973L17.3078 23.8075H17.2968ZM11.8036 5.07135C4.91246 9.1174 1.28671 17.1222 2.78288 24.9744L3.03406 25.1271L12.5899 22.5533L12.7319 22.3134C12.1312 19.8269 10.2965 11.244 12.0875 5.30037L11.7927 5.07135H11.8036ZM30.3146 20.2958L30.2054 20.6121L32.7282 23.9711L32.9466 24.0474L38.8985 22.4443L39.0514 22.2698L39.5429 18.1038L39.2917 17.8856L30.3256 20.2958H30.3146ZM17.0675 3.02106C16.8819 3.02106 16.6962 3.04287 16.5215 3.0974C13.8786 3.80628 12.6445 11.6039 15.0908 21.67L15.342 21.8117L26.951 18.6818L27.093 18.4309C25.4876 13.0544 20.9117 3.02106 17.0675 3.02106ZM21.4468 2.78114C26.0009 7.02349 28.7202 15.3555 29.4519 17.8093L29.7031 17.9511L39.2589 15.3773L39.4009 15.1156C36.7471 7.56878 29.5939 2.47578 21.5888 2.43215L21.4468 2.78114Z" fill="#215679"/>
<path d="M59.419 19.445C55.6185 19.445 52.5279 16.3586 52.5279 12.5634C52.5279 8.76821 55.6185 5.68187 59.419 5.68187C63.2195 5.68187 66.3101 8.76821 66.3101 12.5634C66.3101 16.3586 63.2195 19.445 59.419 19.445ZM59.419 8.10296C56.9618 8.10296 54.9632 10.0987 54.9632 12.5525C54.9632 15.0063 56.9618 17.0021 59.419 17.0021C61.8762 17.0021 63.8748 15.0063 63.8748 12.5525C63.8748 10.0987 61.8762 8.10296 59.419 8.10296Z" fill="#215679"/>
<path d="M60.6422 0H58.2068V2.43199H60.6422V0Z" fill="#215679"/>
<path d="M67.4486 2.82155L65.7266 4.54124L67.4486 6.26091L69.1707 4.54123L67.4486 2.82155Z" fill="#215679"/>
<path d="M72 11.3422H69.5646V13.7742H72V11.3422Z" fill="#215679"/>
<path d="M67.4488 18.8441L65.7273 20.5644L67.45 22.2835L69.1714 20.5632L67.4488 18.8441Z" fill="#215679"/>
<path d="M60.6422 22.6841H58.2068V25.1161H60.6422V22.6841Z" fill="#215679"/>
<path d="M51.394 18.842L49.6725 20.5623L51.3952 22.2814L53.1167 20.5611L51.394 18.842Z" fill="#215679"/>
<path d="M49.2844 11.3422H46.849V13.7742H49.2844V11.3422Z" fill="#215679"/>
<path d="M51.4008 2.82636L49.6788 4.54603L51.4008 6.2657L53.1229 4.54603L51.4008 2.82636Z" fill="#215679"/>
</svg>
